assets/images/shexiangtou.svg

<svg xmlns="http://www.w3.org/2000/svg" preserveAspectRatio="xMidYMid" width="116" height="116" viewBox="0 0 116 116"><defs><style>.cls-1,.cls-2{fill:#fff}.cls-1{stroke:#fff;stroke-linejoin:round;stroke-width:3px;opacity:.9;fill-opacity:.2}.cls-2{fill-rule:evenodd}</style></defs><circle cx="58.5" cy="58.203" r="54.5" class="cls-1"/><path d="M84.586 53.207l-38.984 22.61c-1.676.973-3.906.26-4.98-1.592l-10.11-17.431c-1.074-1.852-.585-4.142 1.091-5.114l38.984-22.61c1.677-.973 3.907-.259 4.981 1.592l10.11 17.431c1.074 1.852.585 4.142-1.092 5.114zM73.185 34.451c-.486-.838-1.495-1.16-2.254-.72L34.407 54.914c-.759.44-.98 1.476-.494 2.314.486.838 1.495 1.161 2.254.721l36.524-21.184c.759-.44.98-1.476.494-2.314zm-36.85 35.576l-2.701 1.66s1.825 2.611.311 4.851c-3.967 3.656-5.231 3.699-5.231 3.699l-9.696-16.105s3.019-2.292 5.246-2.577c2.226-.284 4.393 2.133 4.393 2.133l2.776-1.754 4.902 8.093zM71.588 66.2c.352 3.577-2.409 5.216-2.409 5.216l-.036 8.514 13.878.024-.002 5.062s-13.253-.024-16.029-.024c-2.777 0-3.039-2.848-3.039-2.848s.049-5.36.052-9.371c-3.131.912-5.795-3.053-5.795-3.053l12.088-7.051s1.102 1.597 1.292 3.531z" class="cls-2"/></svg>

<svg xmlns="http://www.w3.org/2000/svg" xmlns:xlink="http://www.w3.org/1999/xlink" preserveAspectRatio="xMidYMid" width="116" height="116" viewBox="0 0 116 116">
  <defs>
    <style>
      .cls-1, .cls-2 {
        fill: #fff;
      }

      .cls-1 {
        stroke: #fff;
        stroke-linejoin: round;
        stroke-width: 3px;
        opacity: 0.9;
        fill-opacity: 0.2;
      }

      .cls-2 {
        fill-rule: evenodd;
      }
    </style>
  </defs>
  <g>
    <circle cx="58.5" cy="58.203" r="54.5" class="cls-1"/>
    <path d="M84.586,53.207 L45.602,75.817 C43.926,76.790 41.696,76.077 40.622,74.225 L30.512,56.794 C29.438,54.942 29.927,52.652 31.603,51.680 L70.587,29.070 C72.264,28.097 74.494,28.811 75.568,30.662 L85.678,48.093 C86.752,49.945 86.263,52.235 84.586,53.207 ZM73.185,34.451 C72.699,33.613 71.690,33.291 70.931,33.731 L34.407,54.914 C33.648,55.354 33.427,56.390 33.913,57.228 C34.399,58.066 35.408,58.389 36.167,57.949 L72.691,36.765 C73.450,36.325 73.671,35.289 73.185,34.451 ZM36.335,70.027 L33.634,71.687 C33.634,71.687 35.459,74.298 33.945,76.538 C29.978,80.194 28.714,80.237 28.714,80.237 L19.018,64.132 C19.018,64.132 22.037,61.840 24.264,61.555 C26.490,61.271 28.657,63.688 28.657,63.688 L31.433,61.934 L36.335,70.027 ZM71.588,66.200 C71.940,69.777 69.179,71.416 69.179,71.416 L69.143,79.930 L83.021,79.954 L83.019,85.016 C83.019,85.016 69.766,84.992 66.990,84.992 C64.213,84.992 63.951,82.144 63.951,82.144 C63.951,82.144 64.000,76.784 64.003,72.773 C60.872,73.685 58.208,69.720 58.208,69.720 L70.296,62.669 C70.296,62.669 71.398,64.266 71.588,66.200 Z" class="cls-2"/>
  </g>
</svg>
